build/assets/images/svg/icons/login/vk.svg

<svg width="40" height="40" viewBox="0 0 40 40" fill="none" xmlns="http://www.w3.org/2000/svg">
<rect width="40" height="40" rx="20" fill="#F4F7FB"/>
<path d="M20.8931 26.4797C14.0599 26.4797 10.1624 21.7951 10 14H13.4229C13.5353 19.7214 16.0587 22.1449 18.0574 22.6446V14H21.2805V18.9344C23.2543 18.722 25.3277 16.4735 26.0273 14H29.2503C28.7132 17.0481 26.4646 19.2967 24.8656 20.2211C26.4646 20.9706 29.0256 22.9319 30 26.4797H26.4521C25.6901 24.1062 23.7914 22.2698 21.2805 22.02V26.4797H20.8931Z" fill="#203686"/>
</svg>

<svg width="40" height="40" fill="none" xmlns="http://www.w3.org/2000/svg"><rect width="40" height="40" rx="20" fill="#F4F7FB"/><path d="M20.893 26.48C14.06 26.48 10.163 21.795 10 14h3.423c.112 5.721 2.636 8.145 4.634 8.645V14h3.224v4.934c1.973-.212 4.047-2.46 4.746-4.934h3.223c-.537 3.048-2.785 5.297-4.384 6.221 1.599.75 4.16 2.71 5.134 6.259h-3.548c-.762-2.374-2.66-4.21-5.172-4.46v4.46h-.387z" fill="#203686"/></svg>
